svg/chapters.svg

<svg width="480" height="480" viewBox="0 0 480 480" xmlns="http://www.w3.org/2000/svg" ><title>chapters</title><path d="M140 140l280 0 0-40-280 0 0 40z m-80 240l40 0 0-40-40 0 0 40z m0-80l40 0 0-40-40 0 0 40z m0-80l40 0 0-40-40 0 0 40z m0-80l40 0 0-40-40 0 0 40z m80 240l280 0 0-40-280 0 0 40z m0-80l280 0 0-40-280 0 0 40z m0-80l280 0 0-40-280 0 0 40z" /></svg>

<svg xmlns="http://www.w3.org/2000/svg" width="480" height="480" viewBox="0 0 480 480"><title>chapters</title><path d="M140 140h280v-40H140zM60 380h40v-40H60zm0-80h40v-40H60zm0-80h40v-40H60zm0-80h40v-40H60zm80 240h280v-40H140zm0-80h280v-40H140zm0-80h280v-40H140z"/></svg>
